packages/foundations/assets/icons/functional/images/environment/water_drop_28.svg

<svg width="28" height="28" viewBox="0 0 28 28" fill="none" xmlns="http://www.w3.org/2000/svg">
<g clip-path="url(#clip0_185_865)">
<path fill-rule="evenodd" clip-rule="evenodd" d="M4.86676 17.0253C4.86676 14.9463 5.72951 12.6424 7.43051 10.1784C7.43051 10.1784 10.9576 4.92405 12.565 2.50993C12.88 2.03655 13.4068 1.75218 13.9746 1.75043H13.9799C14.5451 1.75043 15.0719 2.03043 15.3878 2.5003C16.1438 3.62468 17.3784 5.4543 18.4538 7.0468C18.7241 7.44755 18.6191 7.99093 18.2184 8.26218C17.8176 8.53168 17.2743 8.42668 17.0039 8.02593C15.9276 6.43343 14.6921 4.60205 13.9361 3.4768C12.4119 5.89793 8.87689 11.1628 8.87689 11.1628C7.37539 13.3381 6.61676 15.3077 6.61676 17.0244C6.61676 21.3566 9.72214 24.5004 14 24.5004C18.2779 24.5004 21.3833 21.3566 21.3833 17.0244C21.3833 15.3873 20.685 13.5087 19.3069 11.4428C19.0391 11.0412 19.1476 10.4978 19.5493 10.2292C19.9509 9.96143 20.4943 10.0699 20.7629 10.4716C22.3353 12.8306 23.1333 15.0356 23.1333 17.0236C23.1333 22.2832 19.2071 26.2496 14 26.2496C8.79289 26.2513 4.86676 22.2849 4.86676 17.0253Z" fill="#1A1C1F"/>
</g>
<defs>
<clipPath id="clip0_185_865">
<rect width="28" height="28" fill="white"/>
</clipPath>
</defs>
</svg>

<svg xmlns="http://www.w3.org/2000/svg" width="28" height="28" fill="none"><g clip-path="url(#a)"><path fill="#1A1C1F" fill-rule="evenodd" d="M4.867 17.025c0-2.079.863-4.383 2.564-6.847 0 0 3.527-5.254 5.134-7.668a1.7 1.7 0 0 1 1.41-.76h.005c.565 0 1.092.28 1.408.75.756 1.125 1.99 2.954 3.066 4.547a.876.876 0 0 1-1.45.979 2314 2314 0 0 1-3.068-4.55c-1.524 2.422-5.06 7.687-5.06 7.687-1.5 2.175-2.26 4.145-2.26 5.861 0 4.333 3.106 7.476 7.384 7.476s7.383-3.143 7.383-7.476c0-1.637-.698-3.515-2.076-5.581a.876.876 0 0 1 1.456-.971c1.572 2.359 2.37 4.564 2.37 6.552 0 5.26-3.926 9.226-9.133 9.226-5.207.001-9.133-3.965-9.133-9.225" clip-rule="evenodd"/></g><defs><clipPath id="a"><path fill="#fff" d="M0 0h28v28H0z"/></clipPath></defs></svg>
